build/img/menu-tablet.svg

<svg width="72" height="50" fill="none" xmlns="http://www.w3.org/2000/svg"><path fill="#FE7865" d="M0 0h72v50H0z"/><path fill-rule="evenodd" clip-rule="evenodd" d="M24.75 31h22.5v-1h-22.5v1zm0-6.25h22.5v-1h-22.5v1zm0-7.25v1h22.5v-1h-22.5z" fill="#fff"/></svg>

<svg width="72" height="50" viewBox="0 0 72 50" fill="none" xmlns="http://www.w3.org/2000/svg">
<rect width="72" height="50" fill="#FE7865"/>
<path fill-rule="evenodd" clip-rule="evenodd" d="M24.75 31H47.25V30H24.75V31ZM24.75 24.75H47.25V23.75H24.75V24.75ZM24.75 17.5V18.5H47.25V17.5H24.75Z" fill="white"/>
</svg>
